X:511
%%etbk:tnset id:311,pos:1,rep:3x,ant:
%%etbk:wsite http://thesession.org/tunes/141
%%etbk:wsite http://comhaltas.ie/music/detail/kilmaley/
%%etbk:pldat 2016-09-17T14:40,2016-09-16T16:34,2015-01-25T16:42,2014-12-16T17:24,2014-05-09T18:33,2014-04-27T13:14,2014-04-12T15:41,2014-04-07T19:40,2013-12-11T16:18,2013-11-18T18:29,2013-11-17T15:19,2013-11-03T15:11,2013-10-02T18:15,2013-09-27T14:39,2013-09-26T16:10
T: Glen Allen
H: Created 2013-09-26 /  Last Modified 2013-10-02
R: reel
M: 4/4
L: 1/8
K: Gmaj
DE|: "G"!3!G2!1!DG !2!EGDE| !3!G2BG AG!1!E!3!G| "D"!4!A2!1!EA !2!FAE!4!A|!1!ABcd !5!edB!1!A|!
"G"!3!G2!1!DG !2!EGD!2!E| !3!GG !5!BG !4!A!1!GGG| "C"!3!c2!1!cd !3!efg!3!e| "D"!2!d!1!B!2!A!3!B "G"!1!G2:|!
Bd|: "G"!3!g2!1!dg !2!egde| !3!g2bg ag!1!eg| "D"!4!a2!1!ea faeg| !4!a2bg ag!1!ef|!
"G"!3!g2dg egde| !3!g2bg ag!2!e!1!d| "C"!1!cccd !3!efge| "D"!2!d!1!B!2!A!3!B "G"!1!G2:|!


